Profiles/2011-07-31.pp3

[Version]
AppVersion=3.0.0
Version=300

[Exposure]
Auto=false
Clip=0.001
Compensation=0
Brightness=0
Contrast=0
Saturation=0
Black=0
HighlightCompr=20
HighlightComprThreshold=0
ShadowCompr=0
Curve=2;0.25;0.40000000000000002;0.75;0;100;100;-50;

[Channel Mixer]
Red=100;0;0;
Green=0;100;0;
Blue=0;0;100;

[Luminance Curve]
Brightness=0
Contrast=0
Saturation=0
AvoidColorClipping=false
SaturationLimiter=false
SaturationLimit=50
LCurve=0;
aCurve=0;
bCurve=0;

[Sharpening]
Enabled=false
Method=rld
Radius=0.80000000000000004
Amount=120
Threshold=512
OnlyEdges=false
EdgedetectionRadius=1.8999999999999999
EdgeTolerance=1800
HalocontrolEnabled=false
HalocontrolAmount=85
DeconvRadius=0.75
DeconvAmount=75
DeconvDamping=20
DeconvIterations=30

[Color Boost]
Amount=0
AvoidColorClipping=false
SaturationLimiter=false
SaturationLimit=75

[White Balance]
Setting=Camera
Temperature=5092
Green=1.1539999999999999

[Color Shift]
ChannelA=0
ChannelB=0

[Impulse Denoising]
Enabled=false
Threshold=50

[Defringing]
Enabled=true
Radius=2
Threshold=25

[Directional Pyramid Denoising]
Enabled=true
Luma=10
Chroma=20
Gamma=2

[Luminance Denoising]
Enabled=false
Radius=2.5
EdgeTolerance=1500

[Chrominance Denoising]
Enabled=false
Amount=20

[Shadows & Highlights]
Enabled=true
HighQuality=false
Highlights=10
HighlightTonalWidth=10
Shadows=10
ShadowTonalWidth=20
LocalContrast=0
Radius=5

[Crop]
Enabled=false
X=425
Y=424
W=1767
H=2650
FixedRatio=true
Ratio=3:2
Orientation=Portrait
Guide=None

[Coarse Transformation]
Rotate=0
HorizontalFlip=false
VerticalFlip=false

[Common Properties for Transformations]
AutoFill=true

[Rotation]
Degree=0

[Distortion]
Amount=0
UseLensFun=false

[Perspective]
Horizontal=0
Vertical=0

[CACorrection]
Red=0
Blue=0

[Vignetting Correction]
Amount=0
Radius=50
Strength=1
CenterX=0
CenterY=0

[HLRecovery]
Enabled=true
Method=Luminance

[Resize]
Enabled=false
Scale=1
AppliesTo=Cropped area
Method=Bicubic
DataSpecified=0
Width=2594
Height=3900

[Color Management]
InputProfile=(camera)
ApplyGammaBeforeInputProfile=false
WorkingProfile=ProPhoto
OutputProfile=AdobeRGB1998

[Equalizer]
Enabled=false
C0=0
C1=0
C2=0
C3=0
C4=0
C5=0
C6=0
C7=0

[Directional Pyramid Equalizer]
Enabled=false
Mult0=1
Mult1=1
Mult2=1
Mult3=1
Mult4=0

[HSV Equalizer]
HCurve=0;
SCurve=0;
VCurve=0;

[RAW]
DarkFrame=
DarkFrameAuto=false
CA=false
CARed=0
CABlue=0
HotDeadPixels=false
LineDenoise=0
GreenEqThreshold=0
CcSteps=1
Method=eahd
DCBIterations=2
DCBEnhance=false
PreExposure=1
PrePreserv=0
