Profiles/2012-05-22 BW(R).pp3

[Version]
AppVersion=4.0.6.3
Version=301

[General]
Rank=0
ColorLabel=0
InTrash=false

[Exposure]
Auto=false
Clip=0
Compensation=-1
Brightness=0
Contrast=75
Saturation=0
Black=-8192
HighlightCompr=70
HighlightComprThreshold=50
ShadowCompr=50
Curve=2;0.25;0.5;0.75;0;40;0;-60;

[Channel Mixer]
Red=100;0;0;
Green=100;0;0;
Blue=100;0;0;

[Luminance Curve]
Brightness=0
Contrast=0
Saturation=0
AvoidColorClipping=false
SaturationLimiter=false
SaturationLimit=50
LCurve=0;
aCurve=0;
bCurve=0;

[Sharpening]
Enabled=false
Method=usm
Radius=0.80000000000000004
Amount=200
Threshold=1
OnlyEdges=false
EdgedetectionRadius=1.8999999999999999
EdgeTolerance=1000
HalocontrolEnabled=true
HalocontrolAmount=75
DeconvRadius=1
DeconvAmount=49
DeconvDamping=20
DeconvIterations=30

[Vibrance]
Enabled=false
Pastels=50
Saturated=50
PSThreshold=75
ProtectSkins=false
AvoidColorShift=true
PastSatTog=true

[SharpenEdge]
Enabled=false
Passes=1
Strength=40
ThreeChannels=false

[SharpenMicro]
Enabled=false
Matrix=false
Strength=20
Uniformity=50

[Color Boost]
Amount=0
AvoidColorClipping=false
SaturationLimiter=false
SaturationLimit=50

[White Balance]
Setting=Custom
Temperature=5400
Green=1.2

[Color Shift]
ChannelA=0
ChannelB=0

[Impulse Denoising]
Enabled=true
Threshold=50

[Defringing]
Enabled=false
Radius=2
Threshold=25

[Directional Pyramid Denoising]
Enabled=false
Luma=20
Chroma=5
Gamma=3
LumCurve=0;
ChromCurve=0;

[EPD]
Enabled=true
Strength=0.10000000000000001
EdgeStopping=1.3999999999999999
Scale=1
ReweightingIterates=0

[Luminance Denoising]
Enabled=false
Radius=1.8999999999999999
EdgeTolerance=2000

[Chrominance Denoising]
Enabled=false
Amount=20

[Shadows & Highlights]
Enabled=false
HighQuality=false
Highlights=10
HighlightTonalWidth=80
Shadows=10
ShadowTonalWidth=80
LocalContrast=0
Radius=30

[Crop]
Enabled=false
X=0
Y=0
W=3900
H=2594
FixedRatio=false
Ratio=3:2
Orientation=Landscape
Guide=None

[Coarse Transformation]
Rotate=0
HorizontalFlip=false
VerticalFlip=false

[Common Properties for Transformations]
AutoFill=true

[Rotation]
Degree=0

[Distortion]
Amount=0
UseLensFun=false

[Perspective]
Horizontal=0
Vertical=0

[CACorrection]
Red=0
Blue=0

[Vignetting Correction]
Amount=0
Radius=50
Strength=1
CenterX=0
CenterY=0

[HLRecovery]
Enabled=true
Method=Luminance

[Resize]
Enabled=false
Scale=0.23000000000000001
AppliesTo=Cropped area
Method=Lanczos
DataSpecified=3
Width=900
Height=900

[Color Management]
InputProfile=(camera)
BlendCMSMatrix=true
WorkingProfile=ProPhoto
OutputProfile=sRGB Color Space Profile
Gammafree=default
Freegamma=false
GammaValue=2.2200000000000002
GammaSlope=4.5

[Directional Pyramid Equalizer]
Enabled=false
Mult0=1
Mult1=1
Mult2=1
Mult3=1
Mult4=0.20000000000000001

[HSV Equalizer]
HCurve=0;
SCurve=0;
VCurve=0;

[RAW]
DarkFrame=
DarkFrameAuto=false
FlatFieldFile=
FlatFieldAutoSelect=false
FlatFieldBlurRadius=32
FlatFieldBlurType=Area Flatfield
CA=false
CARed=0
CABlue=0
HotDeadPixels=false
HotDeadPixelThresh=40
LineDenoise=0
GreenEqThreshold=0
CcSteps=0
Method=amaze
DCBIterations=2
DCBEnhance=false
ALLEnhance=false
PreExposure=1
PrePreserv=0
PreBlackzero=0
PreBlackone=0
PreBlacktwo=0
PreBlackthree=0
PreTwoGreen=true
