Profiles/2012-08-04 Quiet.pp3
[Version]
AppVersion=4.0.9.99
Version=303

[General]
Rank=0
ColorLabel=0
InTrash=false

[Exposure]
Auto=false
Clip=0
Compensation=2.5
Brightness=5
Contrast=10
Saturation=0
Black=0
HighlightCompr=70
HighlightComprThreshold=50
ShadowCompr=50
Curve=2;0.25;0.5;0.75;0;80;40;-60;

[Channel Mixer]
Red=200;50;50;
Green=50;200;50;
Blue=25;25;200;

[Luminance Curve]
Brightness=0
Contrast=0
Chromaticity=0
AvoidColorShift=true
SaturationLimit=0
BWtoning=false
LCurve=0;
aCurve=0;
bCurve=0;
ccCurve=0;
chCurve=0;

[Sharpening]
Enabled=true
Method=rld
Radius=0.5
Amount=125
Threshold=20;80;2000;1200;
OnlyEdges=false
EdgedetectionRadius=1.8999999999999999
EdgeTolerance=1800
HalocontrolEnabled=false
HalocontrolAmount=85
DeconvRadius=0.75
DeconvAmount=75
DeconvDamping=20
DeconvIterations=5

[Vibrance]
Enabled=false
Pastels=50
Saturated=50
PSThreshold=0;75;
ProtectSkins=false
AvoidColorShift=true
PastSatTog=true
SkinTonesCurve=0;

[SharpenEdge]
Enabled=false
Passes=2
Strength=50
ThreeChannels=false

[SharpenMicro]
Enabled=false
Matrix=false
Strength=20
Uniformity=50

[White Balance]
Setting=Custom
Temperature=5400
Green=1

[Impulse Denoising]
Enabled=false
Threshold=50

[Defringing]
Enabled=true
Radius=2
Threshold=25

[Directional Pyramid Denoising]
Enabled=true
Luma=20
Chroma=20
Gamma=3

[EPD]
Enabled=true
Strength=0.14999999999999999
EdgeStopping=1
Scale=1
ReweightingIterates=0

[Shadows & Highlights]
Enabled=false
HighQuality=false
Highlights=10
HighlightTonalWidth=80
Shadows=10
ShadowTonalWidth=80
LocalContrast=0
Radius=30

[Crop]
Enabled=false
X=0
Y=0
W=3900
H=2594
FixedRatio=false
Ratio=3:2
Orientation=Landscape
Guide=None

[Coarse Transformation]
Rotate=0
HorizontalFlip=false
VerticalFlip=false

[Common Properties for Transformations]
AutoFill=true

[Rotation]
Degree=0

[Distortion]
Amount=0

[LensProfile]
LCPFile=
UseDistortion=true
UseVignette=true
UseCA=true

[Perspective]
Horizontal=0
Vertical=0

[CACorrection]
Red=0
Blue=0

[Vignetting Correction]
Amount=0
Radius=50
Strength=1
CenterX=0
CenterY=0

[HLRecovery]
Enabled=false
Method=Blend

[Resize]
Enabled=false
Scale=0.23000000000000001
AppliesTo=Cropped area
Method=Lanczos
DataSpecified=3
Width=900
Height=900

[Color Management]
InputProfile=(camera)
BlendCMSMatrix=true
PreferredProfile=true
WorkingProfile=BestRGB
OutputProfile=AdobeRGB
Gammafree=default
Freegamma=false
GammaValue=2.2200000000000002
GammaSlope=4.5

[Directional Pyramid Equalizer]
Enabled=false
Mult0=1
Mult1=1
Mult2=1
Mult3=1
Mult4=0.20000000000000001

[HSV Equalizer]
HCurve=0;
SCurve=0;
VCurve=0;

[RGB Curves]
rCurve=0;
gCurve=0;
bCurve=0;

[RAW]
DarkFrame=
DarkFrameAuto=false
FlatFieldFile=
FlatFieldAutoSelect=false
FlatFieldBlurRadius=32
FlatFieldBlurType=Area Flatfield
CA=false
CARed=0
CABlue=0
HotDeadPixels=true
HotDeadPixelThresh=40
LineDenoise=0
GreenEqThreshold=0
CcSteps=2
Method=dcb
DCBIterations=2
DCBEnhance=false
ALLEnhance=false
PreExposure=0.10000000000000001
PrePreserv=2.5
PreBlackzero=-5
PreBlackone=0
PreBlacktwo=0
PreBlackthree=-5
PreTwoGreen=true
