Profiles/2012-05-15 Natural.pp3

[Version]
AppVersion=4.0.6.3
Version=301

[General]
Rank=0
ColorLabel=0
InTrash=false

[Exposure]
Auto=false
Clip=0
Compensation=0
Brightness=0
Contrast=20
Saturation=0
Black=1000
HighlightCompr=70
HighlightComprThreshold=50
ShadowCompr=50
Curve=2;0.10500000000000001;0.25;0.75;0;80;40;-40;

[Channel Mixer]
Red=95;0;0;
Green=0;100;0;
Blue=0;0;100;

[Luminance Curve]
Brightness=0
Contrast=0
Saturation=0
AvoidColorClipping=false
SaturationLimiter=false
SaturationLimit=40
LCurve=0;
aCurve=0;
bCurve=0;

[Sharpening]
Enabled=true
Method=usm
Radius=0.29999999999999999
Amount=250
Threshold=0
OnlyEdges=true
EdgedetectionRadius=1
EdgeTolerance=1000
HalocontrolEnabled=false
HalocontrolAmount=85
DeconvRadius=0.75
DeconvAmount=75
DeconvDamping=20
DeconvIterations=30

[Vibrance]
Enabled=true
Pastels=-10
Saturated=-10
PSThreshold=75
ProtectSkins=false
AvoidColorShift=true
PastSatTog=true

[SharpenEdge]
Enabled=false
Passes=2
Strength=50
ThreeChannels=false

[SharpenMicro]
Enabled=false
Matrix=false
Strength=20
Uniformity=50

[Color Boost]
Amount=0
AvoidColorClipping=false
SaturationLimiter=false
SaturationLimit=75

[White Balance]
Setting=Camera
Temperature=3552
Green=0.74399999999999999

[Color Shift]
ChannelA=0
ChannelB=0

[Impulse Denoising]
Enabled=false
Threshold=50

[Defringing]
Enabled=true
Radius=2
Threshold=25

[Directional Pyramid Denoising]
Enabled=true
Luma=10
Chroma=10
Gamma=1
LumCurve=0;
ChromCurve=0;

[EPD]
Enabled=false
Strength=0.25
EdgeStopping=1.3999999999999999
Scale=1
ReweightingIterates=0

[Luminance Denoising]
Enabled=false
Radius=2.5
EdgeTolerance=1500

[Chrominance Denoising]
Enabled=false
Amount=20

[Shadows & Highlights]
Enabled=false
HighQuality=false
Highlights=10
HighlightTonalWidth=80
Shadows=10
ShadowTonalWidth=80
LocalContrast=0
Radius=30

[Crop]
Enabled=false
X=0
Y=0
W=4276
H=2836
FixedRatio=false
Ratio=3:2
Orientation=Landscape
Guide=None

[Coarse Transformation]
Rotate=0
HorizontalFlip=false
VerticalFlip=false

[Common Properties for Transformations]
AutoFill=true

[Rotation]
Degree=0

[Distortion]
Amount=0
UseLensFun=false

[Perspective]
Horizontal=0
Vertical=0

[CACorrection]
Red=0
Blue=0

[Vignetting Correction]
Amount=0
Radius=50
Strength=1
CenterX=0
CenterY=0

[HLRecovery]
Enabled=true
Method=Blend

[Resize]
Enabled=false
Scale=1
AppliesTo=Cropped area
Method=Bicubic
DataSpecified=0
Width=4276
Height=2836

[Color Management]
InputProfile=(camera)
BlendCMSMatrix=false
WorkingProfile=ProPhoto
OutputProfile=RT_sRGB
Gammafree=default
Freegamma=false
GammaValue=2.2200000000000002
GammaSlope=4.5

[Directional Pyramid Equalizer]
Enabled=true
Mult0=3
Mult1=1
Mult2=1
Mult3=1
Mult4=0.20000000000000001

[HSV Equalizer]
HCurve=0;
SCurve=0;
VCurve=0;

[RAW]
DarkFrame=
DarkFrameAuto=false
FlatFieldFile=
FlatFieldAutoSelect=false
FlatFieldBlurRadius=32
FlatFieldBlurType=Area Flatfield
CA=false
CARed=0
CABlue=0
HotDeadPixels=false
HotDeadPixelThresh=40
LineDenoise=0
GreenEqThreshold=0
CcSteps=1
Method=amaze
DCBIterations=2
DCBEnhance=false
ALLEnhance=false
PreExposure=1
PrePreserv=0
PreBlackzero=0
PreBlackone=0
PreBlacktwo=0
PreBlackthree=0
PreTwoGreen=true
