Profiles/2012-07-09 Soft Pastel (Light).pp3

[Version]
AppVersion=4.0.6.3
Version=301

[General]
Rank=0
ColorLabel=0
InTrash=false

[Exposure]
Auto=false
Clip=0
Compensation=1
Brightness=10
Contrast=10
Saturation=10
Black=0
HighlightCompr=70
HighlightComprThreshold=50
ShadowCompr=50
Curve=2;0.25;0.5;0.75;0;100;60;-40;

[Channel Mixer]
Red=100;20;40;
Green=20;100;40;
Blue=20;20;100;

[Luminance Curve]
Brightness=0
Contrast=0
Saturation=0
AvoidColorClipping=false
SaturationLimiter=false
SaturationLimit=50
LCurve=0;
aCurve=0;
bCurve=0;

[Sharpening]
Enabled=false
Method=usm
Radius=0.29999999999999999
Amount=250
Threshold=0
OnlyEdges=true
EdgedetectionRadius=1
EdgeTolerance=1800
HalocontrolEnabled=false
HalocontrolAmount=85
DeconvRadius=0.75
DeconvAmount=75
DeconvDamping=20
DeconvIterations=30

[Vibrance]
Enabled=false
Pastels=0
Saturated=0
PSThreshold=75
ProtectSkins=false
AvoidColorShift=true
PastSatTog=true

[SharpenEdge]
Enabled=false
Passes=2
Strength=50
ThreeChannels=false

[SharpenMicro]
Enabled=false
Matrix=false
Strength=20
Uniformity=50

[Color Boost]
Amount=0
AvoidColorClipping=false
SaturationLimiter=false
SaturationLimit=50

[White Balance]
Setting=Camera
Temperature=4203
Green=1.0149999999999999

[Color Shift]
ChannelA=0
ChannelB=0

[Impulse Denoising]
Enabled=true
Threshold=50

[Defringing]
Enabled=false
Radius=2
Threshold=25

[Directional Pyramid Denoising]
Enabled=true
Luma=9
Chroma=20
Gamma=3
LumCurve=0;
ChromCurve=0;

[EPD]
Enabled=true
Strength=0.10000000000000001
EdgeStopping=0.10000000000000001
Scale=0.10000000000000001
ReweightingIterates=0

[Luminance Denoising]
Enabled=false
Radius=1.8999999999999999
EdgeTolerance=2000

[Chrominance Denoising]
Enabled=false
Amount=20

[Shadows & Highlights]
Enabled=false
HighQuality=false
Highlights=10
HighlightTonalWidth=80
Shadows=10
ShadowTonalWidth=80
LocalContrast=10
Radius=30

[Crop]
Enabled=false
X=0
Y=0
W=3900
H=2594
FixedRatio=false
Ratio=3:2
Orientation=Landscape
Guide=None

[Coarse Transformation]
Rotate=0
HorizontalFlip=false
VerticalFlip=false

[Common Properties for Transformations]
AutoFill=true

[Rotation]
Degree=0

[Distortion]
Amount=0
UseLensFun=false

[Perspective]
Horizontal=0
Vertical=0

[CACorrection]
Red=0
Blue=0

[Vignetting Correction]
Amount=-100
Radius=50
Strength=5
CenterX=0
CenterY=0

[HLRecovery]
Enabled=true
Method=Color

[Resize]
Enabled=false
Scale=0.23000000000000001
AppliesTo=Cropped area
Method=Lanczos
DataSpecified=3
Width=900
Height=900

[Color Management]
InputProfile=file:/Users/mattintosh/Dropbox/RawTherapee/icc/CNZEU1A1.icc
BlendCMSMatrix=true
WorkingProfile=ProPhoto
OutputProfile=sRGB Color Space Profile
Gammafree=sRGB_g2.4_s12.92
Freegamma=false
GammaValue=2.2200000000000002
GammaSlope=4.5

[Directional Pyramid Equalizer]
Enabled=false
Mult0=1
Mult1=1
Mult2=1
Mult3=1
Mult4=0.20000000000000001

[HSV Equalizer]
HCurve=0;
SCurve=0;
VCurve=0;

[RAW]
DarkFrame=
DarkFrameAuto=true
FlatFieldFile=
FlatFieldAutoSelect=false
FlatFieldBlurRadius=32
FlatFieldBlurType=Area Flatfield
CA=true
CARed=0
CABlue=0
HotDeadPixels=true
HotDeadPixelThresh=40
LineDenoise=0
GreenEqThreshold=0
CcSteps=5
Method=amaze
DCBIterations=2
DCBEnhance=false
ALLEnhance=false
PreExposure=1
PrePreserv=0
PreBlackzero=0
PreBlackone=0
PreBlacktwo=0
PreBlackthree=0
PreTwoGreen=true
